X: 88
T:Rigadoon,A. JaW.088
M:6/4
Q:1/4=100
C:"A Good Tune"
S:James Winder Ms, Lancashire, 1835-41
R:Rigadoon
O:England
A:Wyresdale,Lancashire
H:1/4
Z:vmp.Chris Partington, Aug 2004
K:C
E|A2A A>^GA|B2B B>AB|c>dc B2A|e3-e2:|!
|:(c/d/)|e2e e>fg|d2d d>ef|c2c c>de|!
B>cd e2d|e>dc B>A^G|A3-A2:|]
